X:98205
T:Sunday Morning
P:Miss Margaret Brander, J.P.
C:David Findlay
R:Reel (4x32)
B:RSCDS D82-5
Z:Anselm Lingnau <anselm@strathspey.org>
M:C
L:1/8
K:D
|:A2|"D"d2fd "A"e2a2|"G"gfed "A"cBAG|"D"FGAB ABdA|"E7"Beef "A7"egfe|
     "D"d2fd "A"e2a2|"G"gfed "A"cBAG|"D"FGAB ABdA|"G"Bdde "D"d2:|
ze|:"D"f2af "A"e2a2|"Bm"d2ed "A"cBA2|"G"B2GB "D"A2d2|"E7"fedf "A"e3f|
    "A7"g2eg "D"f2af|"Em"ef"E7"ed "A"c2A2|"G"B2GB "D"A2d2|"A"cdec "D"d4:|
